public/images/disk.svg

<svg width="96" height="96" viewBox="0 0 96 96" fill="none" xmlns="http://www.w3.org/2000/svg">
<path d="M86.5 50.9975C86.5 50.3753 86.3341 49.7643 86.0194 49.2275L69.6069 21.23C68.9787 20.1584 67.8296 19.5 66.5874 19.5H29.4126C28.1704 19.5 27.0213 20.1584 26.3931 21.23L9.98057 49.2275C9.66588 49.7643 9.5 50.3753 9.5 50.9975V73C9.5 74.933 11.067 76.5 13 76.5H83C84.933 76.5 86.5 74.933 86.5 73V50.9975Z" fill="white" stroke="#172136" stroke-width="3" stroke-miterlimit="10" stroke-linecap="square"/>
<mask id="mask0_1960_21592" style="mask-type:alpha" maskUnits="userSpaceOnUse" x="11" y="21" width="74" height="54">
<path d="M84.7254 49.9861C84.9052 50.2928 85 50.642 85 50.9975V73C85 74.1046 84.1046 75 83 75H13C11.8954 75 11 74.1046 11 73V50.9975C11 50.642 11.0948 50.2928 11.2746 49.9861L27.6872 21.9886C28.0461 21.3762 28.7028 21 29.4126 21H66.5874C67.2972 21 67.9539 21.3762 68.3128 21.9886L84.7254 49.9861Z" fill="#1FD68A"/>
</mask>
<g mask="url(#mask0_1960_21592)">
<path d="M89.7254 49.9861C89.9052 50.2928 90 50.642 90 50.9975V73C90 74.1046 89.1046 75 88 75H18C16.8954 75 16 74.1046 16 73V50.9975C16 50.642 16.0948 50.2928 16.2746 49.9861L32.6872 21.9886C33.0461 21.3762 33.7028 21 34.4126 21H71.5874C72.2972 21 72.9539 21.3762 73.3128 21.9886L89.7254 49.9861Z" fill="#1FD68A"/>
</g>
<path d="M9 50L87 50" stroke="#172136" stroke-width="3" stroke-miterlimit="10"/>
<path d="M26 63H70" stroke="#172136" stroke-width="3" stroke-miterlimit="10" stroke-linecap="round"/>
<circle cx="68" cy="22" r="15" fill="white"/>
<path d="M75 15.5L82.5131 17.5131L84.5263 10" stroke="#172136" stroke-width="3" stroke-linecap="round" stroke-linejoin="round"/>
<path d="M68 13V22L73.5 28" stroke="#172136" stroke-width="3" stroke-linecap="round"/>
<path fill-rule="evenodd" clip-rule="evenodd" d="M54.5 22C54.5 14.5442 60.5442 8.5 68 8.5C73.3148 8.5 77.9122 11.5712 80.1144 16.0357C80.3964 16.6075 80.962 17 81.5995 17C82.6535 17 83.4008 15.9726 82.9542 15.0179C80.3245 9.39525 74.6172 5.5 68 5.5C58.8873 5.5 51.5 12.8873 51.5 22C51.5 31.1127 58.8873 38.5 68 38.5C75.4479 38.5 81.7433 33.5653 83.7949 26.787C84.0721 25.8711 83.3458 25 82.3888 25C81.6733 25 81.062 25.4988 80.8407 26.1793C79.081 31.5895 73.9972 35.5 68 35.5C60.5442 35.5 54.5 29.4558 54.5 22Z" fill="#172136"/>
</svg>

<svg width="96" height="96" fill="none" xmlns="http://www.w3.org/2000/svg"><path d="M86.5 50.998a3.5 3.5 0 0 0-.48-1.77L69.606 21.23a3.5 3.5 0 0 0-3.02-1.73H29.413a3.5 3.5 0 0 0-3.02 1.73L9.981 49.227a3.5 3.5 0 0 0-.481 1.77V73a3.5 3.5 0 0 0 3.5 3.5h70a3.5 3.5 0 0 0 3.5-3.5V50.998Z" fill="#fff" stroke="#172136" stroke-width="3" stroke-miterlimit="10" stroke-linecap="square"/><mask id="a" style="mask-type:alpha" maskUnits="userSpaceOnUse" x="11" y="21" width="74" height="54"><path d="M84.725 49.986A2 2 0 0 1 85 50.998V73a2 2 0 0 1-2 2H13a2 2 0 0 1-2-2V50.998a2 2 0 0 1 .275-1.012L27.687 21.99A2 2 0 0 1 29.413 21h37.174a2 2 0 0 1 1.726.989l16.412 27.997Z" fill="#1FD68A"/></mask><g mask="url(#a)"><path d="M89.725 49.986A2 2 0 0 1 90 50.998V73a2 2 0 0 1-2 2H18a2 2 0 0 1-2-2V50.998a2 2 0 0 1 .275-1.012L32.687 21.99A2 2 0 0 1 34.413 21h37.174a2 2 0 0 1 1.726.989l16.412 27.997Z" fill="#1FD68A"/></g><path d="M9 50h78" stroke="#172136" stroke-width="3" stroke-miterlimit="10"/><path d="M26 63h44" stroke="#172136" stroke-width="3" stroke-miterlimit="10" stroke-linecap="round"/><circle cx="68" cy="22" r="15" fill="#fff"/><path d="m75 15.5 7.513 2.013L84.526 10" stroke="#172136" stroke-width="3" stroke-linecap="round" stroke-linejoin="round"/><path d="M68 13v9l5.5 6" stroke="#172136" stroke-width="3" stroke-linecap="round"/><path fill-rule="evenodd" clip-rule="evenodd" d="M54.5 22c0-7.456 6.044-13.5 13.5-13.5 5.315 0 9.912 3.071 12.114 7.536.282.572.848.964 1.486.964 1.053 0 1.8-1.027 1.354-1.982C80.324 9.395 74.617 5.5 68 5.5c-9.113 0-16.5 7.387-16.5 16.5S58.887 38.5 68 38.5c7.448 0 13.743-4.935 15.795-11.713.277-.916-.45-1.787-1.406-1.787-.716 0-1.327.499-1.548 1.18C79.08 31.59 73.997 35.5 68 35.5c-7.456 0-13.5-6.044-13.5-13.5Z" fill="#172136"/></svg>
